src/assets/Imgs/proposal/comment.svg

<svg fill="none" height="20" viewBox="0 0 20 20" width="20" xmlns="http://www.w3.org/2000/svg" xmlns:xlink="http://www.w3.org/1999/xlink"><clipPath id="a"><path d="m0 0h20v20h-20z"/></clipPath><g clip-path="url(#a)"><path d="m17.5053.957031h-15.00549c-1.37852 0-2.49981 1.121289-2.49981 2.499809v10.01246c0 1.3785 1.12129 2.4998 2.49981 2.4998h4.90729l2.59215 3.166 2.58555-3.166h4.9139c1.3785 0 2.4998-1.1213 2.4998-2.4998v-10.01246c.0066-1.37852-1.1147-2.499809-2.4932-2.499809zm-12.92781 8.772429c-.66617 0-1.20703-.54085-1.20703-1.20703s.54086-1.20704 1.20703-1.20704c.66618 0 1.20704.54086 1.20704 1.20704s-.54086 1.20703-1.20704 1.20703zm5.43491 0c-.66613 0-1.20699-.54085-1.20699-1.20703s.54086-1.20704 1.20699-1.20704c.6662 0 1.2071.54086 1.2071 1.20704s-.5409 1.20703-1.2071 1.20703zm5.435 0c-.6662 0-1.207-.54085-1.207-1.20703s.5408-1.20704 1.207-1.20704 1.207.54086 1.207 1.20704-.5408 1.20703-1.207 1.20703z" fill="#1a1323"/></g></svg>

<svg width="20" height="20" viewBox="0 0 20 20" fill="none" xmlns="http://www.w3.org/2000/svg">
<g clip-path="url(#clip0_499_5136)">
<path d="M17.5053 0.957031H2.49981C1.12129 0.957031 0 2.07832 0 3.45684V13.4693C0 14.8478 1.12129 15.9691 2.49981 15.9691H7.4071L9.99925 19.1351L12.5848 15.9691H17.4987C18.8772 15.9691 19.9985 14.8478 19.9985 13.4693V3.45684C20.0051 2.07832 18.8838 0.957031 17.5053 0.957031ZM4.57749 9.72946C3.91132 9.72946 3.37046 9.18861 3.37046 8.52243C3.37046 7.85625 3.91132 7.31539 4.57749 7.31539C5.24367 7.31539 5.78453 7.85625 5.78453 8.52243C5.78453 9.18861 5.24367 9.72946 4.57749 9.72946ZM10.0124 9.72946C9.34627 9.72946 8.80541 9.18861 8.80541 8.52243C8.80541 7.85625 9.34627 7.31539 10.0124 7.31539C10.6786 7.31539 11.2195 7.85625 11.2195 8.52243C11.2195 9.18861 10.6786 9.72946 10.0124 9.72946ZM15.4474 9.72946C14.7812 9.72946 14.2404 9.18861 14.2404 8.52243C14.2404 7.85625 14.7812 7.31539 15.4474 7.31539C16.1136 7.31539 16.6544 7.85625 16.6544 8.52243C16.6544 9.18861 16.1136 9.72946 15.4474 9.72946Z" fill="#1A1323"/>
</g>
<defs>
<clipPath id="clip0_499_5136">
<rect width="20" height="20" fill="white"/>
</clipPath>
</defs>
</svg>
